;FLAVOR:Marlin
;TIME:1978
;Filament used: 1.92145m
;Layer height: 0.2
;MINX:99.472
;MINY:64.874
;MINZ:0.2
;MAXX:157.782
;MAXY:144.25
;MAXZ:6.4
;MKSPREVIEWPROCESSED
; Postprocessed by [MKS WiFi plugin](https://github.com/Jeredian/mks-wifi-plugin)
; simage=0
; gimage=0
;LINEARADVANCEPROCESSED
;Generated with Cura_SteamEngine 4.8.0
M140 S70
M105
M190 S70
M104 S240
M105
M109 S240
M82 ;absolute extrusion mode
M220 S100 ;Reset Feedrate
M221 S100 ;Reset Flowrate

G28 ;Home

;Fix X0 Y0 being outside the bed after homing
G1 Z2.0 F3000 ;Move Z Axis up
G1 X1.3 Y4.8 ;Place the nozzle over the bed
G92 X0 Y0 ;Set new X0 Y0

;Code for nozzle cleaning and flow normalization
G92 E0 ;Reset Extruder
G1 Z2.0 F3000 ;Move Z Axis up
G1 X10.4 Y20 Z0.28 F5000.0
G1 X10.4 Y170.0 Z0.28 F1500.0 E15
G1 X10.1 Y170.0 Z0.28 F5000.0
G1 X10.1 Y40 Z0.28 F1500.0 E30

G92 E0 ;Reset Extruder
G1 Z2.0 F3000 ;Move Z Axis up
G92 E0
G92 E0
G1 F1500 E-0.9
;LAYER_COUNT:32
M900 K0.000000 T0 ;added by LinearAdvanceSettingPlugin
;LAYER:0
M107
G0 F6000 X101.863 Y69.815 Z0.2
;TYPE:SKIRT
G1 F1500 E0
G1 F900 X102.616 Y68.903 E0.04298
G1 X102.798 Y68.705 E0.05275
G1 X103.466 Y68.038 E0.08705
G1 X104.188 Y67.429 E0.12137
G1 X105.228 Y66.716 E0.16719
G1 X105.426 Y66.596 E0.1756
G1 X106.253 Y66.141 E0.2099
G1 X107.116 Y65.758 E0.24421
G1 X108.338 Y65.356 E0.29095
G1 X108.695 Y65.261 E0.30438
G1 X109.617 Y65.057 E0.33869
G1 X110.553 Y64.932 E0.373
G1 X111.131 Y64.894 E0.39405
G1 X111.338 Y64.886 E0.40158
G1 X111.654 Y64.879 E0.41306
G1 X112.156 Y64.874 E0.4313
G1 X145.135 Y64.876 E1.62965
G1 X145.834 Y64.886 E1.65505
G1 X146.777 Y64.94 E1.68938
G1 X147.809 Y65.091 E1.72727
G1 X148.05 Y65.138 E1.7362
G1 X148.969 Y65.358 E1.77053
G1 X149.865 Y65.655 E1.80483
G1 X150.943 Y66.129 E1.84762
G1 X151.238 Y66.278 E1.85963
G1 X152.062 Y66.739 E1.89394
G1 X152.844 Y67.269 E1.92827
G1 X153.579 Y67.862 E1.96258
G1 X153.949 Y68.203 E1.98087
G1 X154.143 Y68.39 E1.99066
G1 X154.795 Y69.074 E2.025
G1 X155.386 Y69.81 E2.05929
G1 X156.117 Y70.941 E2.10823
G1 X156.267 Y71.207 E2.11932
G1 X156.696 Y72.049 E2.15366
G1 X157.052 Y72.923 E2.18795
G1 X157.438 Y74.261 E2.23856
G1 X157.495 Y74.517 E2.24809
G1 X157.661 Y75.446 E2.28238
G1 X157.76 Y76.72 E2.32881
G1 X157.78 Y77.733 E2.36563
G1 X157.782 Y77.953 E2.37362
G1 X157.78 Y131.615 E4.32352
G1 X157.769 Y132.328 E4.34943
G1 X157.714 Y133.271 E4.38375
G1 X157.638 Y133.87 E4.40569
G1 X157.514 Y134.549 E4.43078
G1 X157.468 Y134.764 E4.43876
G1 X157.232 Y135.678 E4.47307
G1 X156.919 Y136.569 E4.50738
G1 X156.422 Y137.642 E4.55035
G1 X156.302 Y137.869 E4.55968
G1 X155.86 Y138.631 E4.59169
G1 X155.323 Y139.407 E4.62598
G1 X154.466 Y140.41 E4.67392
G1 X154.26 Y140.624 E4.68471
G1 X153.577 Y141.276 E4.71902
G1 X152.841 Y141.867 E4.75332
G1 X152.058 Y142.395 E4.78764
G1 X151.478 Y142.727 E4.81192
G1 X151.242 Y142.853 E4.82164
G1 X150.391 Y143.262 E4.85595
G1 X149.509 Y143.598 E4.89025
G1 X148.375 Y143.909 E4.93297
G1 X148.046 Y143.981 E4.94521
G1 X147.116 Y144.144 E4.97952
G1 X145.827 Y144.238 E5.02648
G1 X144.918 Y144.25 E5.05951
G1 X112.176 Y144.249 E6.24925
G1 X111.512 Y144.24 E6.27338
G1 X110.18 Y144.142 E6.32191
G1 X109.882 Y144.102 E6.33284
G1 X108.952 Y143.937 E6.36716
G1 X108.04 Y143.694 E6.40145
G1 X106.791 Y143.22 E6.45
G1 X106.522 Y143.099 E6.46071
G1 X105.678 Y142.675 E6.49503
G1 X104.873 Y142.182 E6.52934
G1 X103.759 Y141.326 E6.58038
G1 X103.537 Y141.132 E6.5911
G1 X102.853 Y140.481 E6.62541
G1 X102.226 Y139.775 E6.65972
G1 X101.443 Y138.684 E6.70852
G1 X101.291 Y138.443 E6.71887
G1 X100.822 Y137.624 E6.75316
G1 X100.423 Y136.768 E6.78748
G1 X100.099 Y135.881 E6.82179
G1 X99.96 Y135.409 E6.83967
G1 X99.872 Y135.084 E6.85191
G1 X99.664 Y134.163 E6.88622
G1 X99.534 Y133.228 E6.92052
G1 X99.491 Y132.577 E6.94422
G1 X99.483 Y132.358 E6.95219
G1 X99.476 Y132.055 E6.9632
G1 X99.472 Y131.523 E6.98253
G1 X99.474 Y77.476 E8.94642
G1 X99.484 Y76.813 E8.97052
G1 X99.538 Y75.87 E9.00484
G1 X99.688 Y74.854 E9.04216
G1 X99.736 Y74.607 E9.0513
G1 X99.955 Y73.689 E9.08559
G1 X100.251 Y72.792 E9.11991
G1 X100.729 Y71.706 E9.16303
G1 X100.873 Y71.421 E9.17463
G1 X101.334 Y70.597 E9.20894
G1 X101.863 Y69.815 E9.24325
G0 F6000 X102.256 Y70.057
G1 F900 X102.955 Y69.215 E9.28301
G1 X103.137 Y69.017 E9.29278
G1 X103.791 Y68.364 E9.32637
G1 X104.5 Y67.77 E9.35998
G1 X105.466 Y67.109 E9.40251
G1 X105.664 Y66.989 E9.41092
G1 X106.475 Y66.544 E9.44453
G1 X107.321 Y66.172 E9.47812
G1 X108.456 Y65.801 E9.52151
G1 X108.813 Y65.706 E9.53493
G1 X109.716 Y65.507 E9.56853
G1 X110.633 Y65.386 E9.60214
G1 X111.149 Y65.354 E9.62092
G1 X111.356 Y65.346 E9.62845
G1 X111.659 Y65.339 E9.63946
G1 X112.156 Y65.334 E9.65752
G1 X145.129 Y65.336 E10.85565
G1 X145.828 Y65.346 E10.88106
G1 X146.751 Y65.399 E10.91465
G1 X147.721 Y65.543 E10.95028
G1 X147.962 Y65.59 E10.95921
G1 X148.861 Y65.806 E10.9928
G1 X149.738 Y66.099 E11.0264
G1 X150.735 Y66.54 E11.06601
G1 X151.03 Y66.689 E11.07802
G1 X151.837 Y67.141 E11.11163
G1 X152.601 Y67.661 E11.14521
G1 X153.63 Y68.534 E11.19425
G1 X153.824 Y68.721 E11.20404
G1 X154.461 Y69.391 E11.23763
G1 X155.038 Y70.114 E11.27124
G1 X155.717 Y71.167 E11.31677
G1 X155.867 Y71.433 E11.32787
G1 X156.285 Y72.257 E11.36144
G1 X156.632 Y73.115 E11.39507
G1 X156.989 Y74.361 E11.44217
G1 X157.046 Y74.617 E11.4517
G1 X157.208 Y75.527 E11.48529
G1 X157.3 Y76.729 E11.52909
G1 X157.32 Y77.742 E11.56591
G1 X157.322 Y77.953 E11.57357
G1 X157.32 Y131.608 E13.52322
G1 X157.309 Y132.321 E13.54913
G1 X157.255 Y133.244 E13.58273
G1 X157.183 Y133.802 E13.60317
G1 X157.064 Y134.453 E13.62722
G1 X157.018 Y134.668 E13.63521
G1 X156.786 Y135.562 E13.66877
G1 X156.477 Y136.434 E13.70238
G1 X156.016 Y137.427 E13.74217
G1 X155.896 Y137.654 E13.7515
G1 X155.471 Y138.385 E13.78222
G1 X154.944 Y139.145 E13.81583
G1 X154.135 Y140.091 E13.86106
G1 X153.929 Y140.305 E13.87185
G1 X153.259 Y140.942 E13.90544
G1 X152.537 Y141.52 E13.93905
G1 X151.768 Y142.033 E13.97264
G1 X151.262 Y142.321 E13.99379
G1 X151.026 Y142.447 E14.00352
G1 X150.192 Y142.847 E14.03713
G1 X149.327 Y143.173 E14.07071
G1 X148.276 Y143.46 E14.1103
G1 X147.947 Y143.532 E14.12254
G1 X147.036 Y143.69 E14.15614
G1 X145.82 Y143.778 E14.20044
G1 X144.918 Y143.79 E14.23322
G1 X112.182 Y143.789 E15.42274
G1 X111.518 Y143.78 E15.44687
G1 X110.241 Y143.686 E15.49339
G1 X109.943 Y143.646 E15.50432
G1 X109.033 Y143.483 E15.53791
G1 X108.14 Y143.243 E15.57151
G1 X106.98 Y142.8 E15.61663
G1 X106.711 Y142.679 E15.62735
G1 X105.885 Y142.264 E15.66094
G1 X105.098 Y141.779 E15.69453
G1 X104.062 Y140.98 E15.74207
G1 X103.84 Y140.786 E15.75278
G1 X103.17 Y140.148 E15.7864
G1 X102.559 Y139.454 E15.82
G1 X101.832 Y138.439 E15.86536
G1 X101.68 Y138.198 E15.87572
G1 X101.221 Y137.395 E15.90933
G1 X100.833 Y136.556 E15.94292
G1 X100.404 Y135.289 E15.99152
G1 X100.316 Y134.964 E16.00376
G1 X100.113 Y134.062 E16.03735
G1 X99.989 Y133.146 E16.07094
G1 X99.951 Y132.56 E16.09228
G1 X99.943 Y132.341 E16.10024
G1 X99.936 Y132.051 E16.11078
G1 X99.932 Y131.523 E16.12997
G1 X99.934 Y77.483 E18.0936
G1 X99.944 Y76.82 E18.1177
G1 X99.998 Y75.897 E18.15129
G1 X100.139 Y74.942 E18.18637
G1 X100.187 Y74.695 E18.19551
G1 X100.403 Y73.796 E18.22911
G1 X100.695 Y72.919 E18.2627
G1 X101.14 Y71.913 E18.30267
G1 X101.284 Y71.628 E18.31427
G1 X101.736 Y70.822 E18.34785
G1 X102.256 Y70.057 E18.38146
G0 F6000 X102.649 Y70.301
G1 F900 X103.293 Y69.526 E18.41808
G1 X103.475 Y69.328 E18.42785
G1 X104.116 Y68.69 E18.46071
G1 X104.811 Y68.111 E18.49358
G1 X105.705 Y67.502 E18.53289
G1 X105.903 Y67.382 E18.5413
G1 X106.696 Y66.948 E18.57415
G1 X107.525 Y66.586 E18.60702
G1 X108.574 Y66.245 E18.6471
G1 X108.931 Y66.15 E18.66052
G1 X109.815 Y65.956 E18.69341
G1 X110.712 Y65.841 E18.72627
G1 X111.167 Y65.814 E18.74283
G1 X111.374 Y65.806 E18.75036
G1 X111.663 Y65.799 E18.76086
G1 X112.156 Y65.794 E18.77878
G1 X145.122 Y65.796 E19.97665
G1 X145.821 Y65.806 E20.00205
G1 X146.724 Y65.859 E20.03492
G1 X147.633 Y65.994 E20.06832
G1 X147.874 Y66.041 E20.07724
G1 X148.753 Y66.253 E20.11009
G1 X149.61 Y66.542 E20.14296
G1 X150.528 Y66.951 E20.17948
G1 X150.823 Y67.1 E20.19148
G1 X151.612 Y67.543 E20.22436
G1 X152.358 Y68.054 E20.25722
G1 X153.311 Y68.866 E20.30271
G1 X153.505 Y69.053 E20.31251
G1 X154.127 Y69.708 E20.34533
G1 X154.69 Y70.417 E20.37823
G1 X155.316 Y71.393 E20.42036
G1 X155.466 Y71.659 E20.43145
G1 X155.875 Y72.466 E20.46433
G1 X156.211 Y73.305 E20.49717
G1 X156.54 Y74.461 E20.54084
G1 X156.597 Y74.717 E20.55037
G1 X156.755 Y75.607 E20.58322
G1 X156.84 Y76.738 E20.62443
G1 X156.86 Y77.751 E20.66125
G1 X156.862 Y77.953 E20.66859
G1 X156.86 Y131.601 E22.61798
G1 X156.849 Y132.314 E22.64389
G1 X156.795 Y133.217 E22.67676
G1 X156.728 Y133.734 E22.6957
G1 X156.615 Y134.356 E22.71867
G1 X156.569 Y134.571 E22.72666
G1 X156.34 Y135.446 E22.75953
G1 X156.036 Y136.298 E22.7924
G1 X155.609 Y137.212 E22.82906
G1 X155.489 Y137.439 E22.83839
G1 X155.082 Y138.14 E22.86784
G1 X154.566 Y138.882 E22.90068
G1 X153.803 Y139.772 E22.94328
G1 X153.597 Y139.986 E22.95407
G1 X152.942 Y140.609 E22.98692
G1 X152.234 Y141.172 E23.01979
G1 X151.479 Y141.67 E23.05265
G1 X151.045 Y141.915 E23.07076
G1 X150.809 Y142.041 E23.08048
G1 X149.993 Y142.432 E23.11336
G1 X149.146 Y142.748 E23.14621
G1 X148.178 Y143.01 E23.18265
G1 X147.849 Y143.082 E23.19489
G1 X146.958 Y143.237 E23.22775
G1 X145.813 Y143.318 E23.26946
G1 X144.918 Y143.33 E23.30199
G1 X112.188 Y143.329 E24.49129
G1 X111.524 Y143.32 E24.51541
G1 X110.302 Y143.23 E24.55994
G1 X110.004 Y143.19 E24.57086
G1 X109.114 Y143.03 E24.60372
G1 X108.241 Y142.792 E24.6366
G1 X107.168 Y142.381 E24.67835
G1 X106.899 Y142.26 E24.68907
G1 X106.092 Y141.852 E24.72193
G1 X105.323 Y141.376 E24.75479
G1 X104.364 Y140.633 E24.79887
G1 X104.142 Y140.439 E24.80959
G1 X103.488 Y139.814 E24.84246
G1 X102.892 Y139.135 E24.87529
G1 X102.221 Y138.193 E24.91731
G1 X102.069 Y137.952 E24.92767
G1 X101.621 Y137.167 E24.96051
G1 X101.244 Y136.345 E24.99337
G1 X100.848 Y135.169 E25.03846
G1 X100.76 Y134.844 E25.05069
G1 X100.562 Y133.961 E25.08358
G1 X100.443 Y133.065 E25.11642
G1 X100.411 Y132.543 E25.13542
G1 X100.396 Y132.047 E25.15345
G1 X100.392 Y131.523 E25.17249
G1 X100.394 Y77.49 E27.13588
G1 X100.404 Y76.827 E27.15997
G1 X100.458 Y75.924 E27.19284
G1 X100.591 Y75.029 E27.22572
G1 X100.639 Y74.782 E27.23486
G1 X100.85 Y73.903 E27.26771
G1 X101.139 Y73.046 E27.30057
G1 X101.55 Y72.121 E27.33735
G1 X101.694 Y71.836 E27.34895
G1 X102.137 Y71.047 E27.38183
G1 X102.649 Y70.301 E27.41471
G1 F1500 E26.51471
;MESH:Captions.stl
G0 F6000 X117.526 Y75.359
G0 X117.526 Y80.175
G0 X117.681 Y81.39
G0 X118.807 Y81.462
G0 X118.967 Y81.272
;TYPE:WALL-OUTER
G1 F1500 E27.41471
G1 F900 X118.967 Y81.614 E27.42444
G1 X117.724 Y81.614 E27.45979
G1 X117.724 Y82.031 E27.47164
G1 X117.799 Y82.031 E27.47378
G1 X117.799 Y82.815 E27.49607
G1 X117.422 Y82.815 E27.50679
G1 X117.422 Y81.614 E27.54095
G1 X116.254 Y81.614 E27.57416
G1 X116.254 Y81.272 E27.58389
G1 X116.998 Y81.272 E27.60504
G1 X116.998 Y81.347 E27.60718
G1 X117.422 Y81.347 E27.61923
G1 X117.422 Y80.071 E27.65552
G1 X117.799 Y80.071 E27.66624
G1 X117.799 Y81.272 E27.70039
G1 X118.967 Y81.272 E27.73361
G1 F1500 E26.83361
G0 F6000 X118.807 Y81.462
G0 X120.078 Y81.428
G0 X120.6 Y82.286
G0 X120.857 Y82.535
G0 X121.124 Y82.632
G0 X121.845 Y82.623
G0 X121.922 Y82.434
G1 F1500 E27.73361
G1 F900 X122.119 Y82.235 E27.74157
G1 X122.251 Y82.004 E27.74914
G1 X122.342 Y81.709 E27.75792
G1 X122.389 Y81.43 E27.76596
G1 X122.413 Y81.101 E27.77534
G1 X122.414 Y80.772 E27.7847
G1 X122.395 Y80.426 E27.79455
G1 X122.354 Y80.123 E27.80325
G1 X122.275 Y79.821 E27.81213
G1 X122.145 Y79.542 E27.82088
G1 X121.914 Y79.297 E27.83045
G1 X121.61 Y79.166 E27.83987
G1 X121.291 Y79.147 E27.84896
G1 X120.955 Y79.238 E27.85885
G1 X120.76 Y79.4 E27.86606
G1 X120.8 Y79.461 E27.86814
G1 X120.756 Y79.497 E27.86976
G1 X120.598 Y79.759 E27.87846
G1 X120.508 Y80.03 E27.88658
G1 X120.455 Y80.343 E27.8956
G1 X120.431 Y80.664 E27.90476
G1 X120.427 Y80.862 E27.91039
G1 X120.433 Y81.114 E27.91756
G1 X120.456 Y81.409 E27.92597
G1 X120.499 Y81.681 E27.9338
G1 X120.574 Y81.947 E27.94166
G1 X120.706 Y82.208 E27.94998
G1 X120.927 Y82.423 E27.95875
G1 X121.212 Y82.527 E27.96738
G1 X121.51 Y82.535 E27.97585
G1 X121.801 Y82.44 E27.98456
G1 X121.867 Y82.382 E27.98706
G1 X121.922 Y82.434 E27.98921
G0 F6000 X122.111 Y82.753
G1 F900 X122.09 Y82.706 E27.99067
G1 X121.751 Y82.83 E28.00094
G1 X121.53 Y82.872 E28.00734
G1 X121.263 Y82.88 E28.01493
G1 X120.823 Y82.796 E28.02767
G1 X120.449 Y82.567 E28.04014
G1 X120.167 Y82.169 E28.05401
G1 X120.084 Y81.96 E28.06041
G1 X120.017 Y81.717 E28.06757
G1 X119.971 Y81.45 E28.07528
G1 X119.946 Y81.169 E28.0833
G1 X119.939 Y80.905 E28.09081
G1 X119.947 Y80.627 E28.09872
G1 X119.968 Y80.394 E28.10537
G1 X120.014 Y80.132 E28.11294
G1 X120.078 Y79.902 E28.11973
G1 X120.171 Y79.667 E28.12691
G1 X120.305 Y79.428 E28.13471
G1 X120.245 Y79.394 E28.13667
G1 X120.366 Y79.238 E28.14228
G1 X120.557 Y79.066 E28.14959
G1 X120.751 Y78.95 E28.15602
G1 X120.991 Y78.86 E28.16331
G1 X121.463 Y78.804 E28.17682
G1 X121.708 Y78.826 E28.18382
G1 X121.958 Y78.889 E28.19115
G1 X122.365 Y79.135 E28.20468
G1 X122.648 Y79.523 E28.21833
G1 X122.756 Y79.782 E28.22631
G1 X122.824 Y80.03 E28.23363
G1 X122.87 Y80.298 E28.24136
G1 X122.897 Y80.586 E28.24958
G1 X122.904 Y80.856 E28.25726
G1 X122.896 Y81.135 E28.2652
G1 X122.873 Y81.385 E28.27234
G1 X122.827 Y81.65 E28.27999
G1 X122.765 Y81.871 E28.28652
G1 X122.664 Y82.127 E28.29434
G1 X122.543 Y82.341 E28.30133
G1 X122.38 Y82.543 E28.30872
G1 X122.111 Y82.753 E28.31842
G0 F6000 X121.961 Y83.013
;TYPE:SKIN
G1 F900 X121.768 Y83.075 E28.31951
G1 X121.032 Y83.103 E28.32347
G1 X120.688 Y83.013 E28.32538
G0 F6000 X119.923 Y82.249
G1 F900 X119.793 Y81.864 E28.32885
G1 X119.69 Y80.997 E28.33632
G1 X119.777 Y80.066 E28.34431
G1 X119.979 Y79.504 E28.34941
G1 X120.406 Y79.677 E28.35335
G1 X120.201 Y80.49 E28.36052
G1 X120.228 Y81.535 E28.36945
G1 X120.303 Y81.865 E28.37235
G1 X120.563 Y82.379 E28.37727
G0 F6000 X120.719 Y82.629
G0 X121.014 Y82.573
G0 X121.924 Y82.599
G0 X122.177 Y82.358
G0 X122.169 Y82.458
G1 F900 X122.294 Y82.329 E28.37962
G1 X122.592 Y81.608 E28.3898
G1 X122.65 Y80.648 E28.40236
G1 X122.581 Y80.07 E28.40996
G1 X122.466 Y79.701 E28.41501
G0 F6000 X122.356 Y79.546
G0 X121.988 Y79.19
G0 X121.642 Y79.04
G0 X121.277 Y79.017
G0 X120.896 Y79.12
G0 X120.51 Y79.537
G0 X120.538 Y79.554
G1 F900 X120.457 Y79.473 E28.41664
G1 F1500 E27.51664
G0 F6000 X120.487 Y79.49
G0 X120.896 Y79.12
G0 X121.277 Y79.017
G0 X121.642 Y79.04
G0 X121.988 Y79.19
G0 X122.228 Y79.442
G0 X122.794 Y80.849
G0 X124.416 Y81.286
G0 X125.743 Y81.364
G0 X125.933 Y81.524
;TYPE:WALL-OUTER
G1 F1500 E28.41664
G1 F900 X124.312 Y81.524 E28.46274
G1 X124.312 Y81.182 E28.47246
G1 X125.933 Y81.182 E28.51856
G1 X125.933 Y81.524 E28.52828
G1 F1500 E27.62828
G0 F6000 X125.743 Y81.364
G0 X131.102 Y81.384
G0 X132.423 Y81.384
G0 X132.613 Y81.544
G1 F1500 E28.52828
G1 F900 X130.992 Y81.544 E28.57438
G1 X130.992 Y81.202 E28.58411
G1 X132.613 Y81.202 E28.6302
G1 X132.613 Y81.544 E28.63993
G1 F1500 E27.73993
G0 F6000 X132.423 Y81.384
G0 X133.138 Y85.329
G0 X132.672 Y85.462
G0 X132.536 Y85.707
G1 F1500 E28.63993
G1 F900 X132.536 Y85.394 E28.64883
G1 X132.63 Y85.352 E28.65176
G1 X132.897 Y85.265 E28.65974
G1 X133.134 Y85.219 E28.66661
G1 X133.393 Y85.205 E28.67399
G1 X133.671 Y85.219 E28.6819
G1 X133.94 Y85.269 E28.68968
G1 X134.363 Y85.453 E28.7028
G1 X134.563 Y85.61 E28.71003
G1 X134.721 Y85.788 E28.7168
